X:1
T:Title
L:1/8
M:12/8
K:Ab
V:1 treble nm="Grand Piano"
V:1
 z6 z2 C C2 C | F2 =E F2 G A2 A G2 F | c6- c2 c c2 B | A3 G3 =E3- E2 F | G6- G2 G G2 A | %5
 B2 B B2 c d2 c B2 A | G6- G2 G A2 B | c3 B3 G3- G2 A | F6- F2 F F2 F | F2 F F2 F G3 F3 | %10
 E3- E2 D C6- | C2 C C2 C D3- D2 D | =E3- E2 E F6 | z2 c c2 d c6- | c2 B A2 G F6- | %15
 F2 F =E2 F G6- | G2 A B2 A G6- | G2 B B2 =A B6- | B2 c e2 d c6- | c2 c c2 d c6- | c2 B A2 G F6- | %21
 F2 F F2 F F2 F G2 F | E2 E E2 E E2 E F2 E | D2 D D2 D D2 D E2 D | C2 C C2 C =E2 E G2 G | %25
 B6- B2 c c2 d | c6- c2 B A2 G | F6- F2 z z3 |] %28

